X: 22102
T: Knotted Cord, The
R: reel
M: 4/4
K: Adorian
|:G|"Am"A2AB AGEG|"Am"A2 Bd edBA|"G"G2 GA GEDE|"G"G2 BG "Em"dGBG|
"Am"A2 AB AGEG|"Am"A2 Bd edBA|"G"GABd efge|"Em"dBGA "Am"BAA:|
|:d|"Am"eaag eaag|"Am"eaab aged|"G"eggd eggd|"G"egga "Em"gedg|
"Am"eaag eaag|"Am"eaab aged|"G"BABd efge|"Em"dBGA "Am"BAA:|

